X: 1510
T: Scotch Mary
T: maire albana.c.
R: reel
B: O'Neill's 1850 "Music of Ireland" #1510
O: F.O'Neill
Z: transcribed by John B. Walsh, walsh@math.ubc.ca 8/23/96
Z: Compacted via repeats and multiple endings [JC]
M: C|
L: 1/8
K: Ador
(AB) | c(E"~"E2) cded | cEEF G2(AB) |1 c(E"~"E2) cded | cAB^G A2 :|2 cEEG cded | cAB^G A2 |]
|: (^cd) | eaa^g efed | ^cdef g2fg |1 eaa^g efed | cAB^G A2 :|2 afge fded | cAB^G A2 |]
